X: 305554
M: 6/8
L: 1/8
K: G
d/c/ |\
|: B |\
dGg ecA | FDd B2G | EcB AGF | GGG G2d |\
dGg ecA | FDd B2G | EcB AGF | G3- G2 :|


